X:437
T: Brich, frohe Morgenrte, an (5-33), S. 55
N: P0707
O: Lothringen
S: MERKELBACH-PINCK, Angelika: Verklingende Weisen, Bd 5, Kassel 1962]
R: geistliches, religises Lied]
M: 6/4
L: 1/8
K: G
D2 | D4G2G2A2B2 | B4AcB4
Bc | d4d2d2B2dc | B6A4
D2 | D4G2G2A2B2 | B4AcB4
Bc | d4d2d2B2dc | B6A4
c2 | B4c2d4e2 | d4G2G4
BA | G4c2B2A2G2 | A6G4
Bc | B2c2d2d2c2B2 | A4c2c2B2
A2 | B2c2d2d2c2B2 | A6G4

@@@ Tune index: 7987
